X:1
T:The Clydesdale Lasses
T:The Clydesdale Lasses
T:Joshua Campbell
C:Joshua Campbell
L:1/8
Q:1/8=232
M:4/4
K:F
V:1 treble 
V:1
 c/B/ |: AF cF dF cF | AF cF AB cB | AF cF dF cF | BA GA Bc dB | AF cF dF cF | AF cF AB cB | %7
 AF cF dF cF | BA GA Bc de | fg ag f2 cf | gf ga ba ga | fg ag fc Ac | BA GA Bc de | fg ag f2 cf | %14
 gf ga ba ga | fg af ge fc | BA GA Bc dB :| %17

